dist/img/cart.svg

<svg width="22" height="21" viewBox="0 0 22 21" xmlns="http://www.w3.org/2000/svg">
<path d="M0.5625 0.550781V2.11328H3.6875C4.02319 2.11328 4.31006 2.33301 4.41992 2.65039L5.87866 15.6692C6.01294 16.8472 7.02612 17.7505 8.2102 17.7505H17.75V16.188H8.2102C7.80737 16.188 7.47778 15.895 7.43506 15.4983L7.3374 14.6255H17.2495C18.3604 14.6255 19.3308 13.832 19.5505 12.7456L21.0459 5.25049H6.28149L5.9458 2.27197L5.92139 2.19873C5.62231 1.22217 4.71289 0.556884 3.6875 0.550781H0.5625ZM16.1875 17.7505C15.3269 17.7505 14.625 18.4524 14.625 19.313C14.625 20.1736 15.3269 20.8755 16.1875 20.8755C17.0481 20.8755 17.75 20.1736 17.75 19.313C17.75 18.4524 17.0481 17.7505 16.1875 17.7505ZM8.375 17.7505C7.5144 17.7505 6.8125 18.4524 6.8125 19.313C6.8125 20.1736 7.5144 20.8755 8.375 20.8755C9.2356 20.8755 9.9375 20.1736 9.9375 19.313C9.9375 18.4524 9.2356 17.7505 8.375 17.7505ZM6.4585 6.81299H19.1416L18.0186 12.4343C17.9392 12.8066 17.6279 13.063 17.2495 13.063H7.1604L6.4585 6.81299Z"/>
</svg>

<svg xmlns="http://www.w3.org/2000/svg" viewBox="0 0 22 21"><path d="M.563.55v1.563h3.125c.335 0 .622.22.732.537l1.459 13.02a2.36 2.36 0 002.331 2.08h9.54v-1.562H8.21a.77.77 0 01-.775-.69l-.098-.872h9.913c1.11 0 2.08-.794 2.3-1.88l1.496-7.496H6.28l-.335-2.978-.025-.073A2.346 2.346 0 003.687.55H.563zm15.624 17.2c-.86 0-1.562.702-1.562 1.563 0 .86.702 1.563 1.563 1.563.86 0 1.562-.702 1.562-1.563 0-.86-.702-1.563-1.563-1.563zm-7.812 0c-.86 0-1.563.702-1.563 1.563 0 .86.702 1.563 1.563 1.563.86 0 1.563-.702 1.563-1.563 0-.86-.702-1.563-1.563-1.563zM6.458 6.813h12.684l-1.123 5.621a.778.778 0 01-.77.629H7.16l-.702-6.25z"/></svg>
